packages/tokens/icons/location/size32Px.svg

<svg viewBox="0 0 32 32" fill="none" xmlns="http://www.w3.org/2000/svg" width="1em" height="1em"><path d="M17.0963 28.9193C18.1604 27.5455 20.2494 24.7417 22.0748 21.6508C22.9875 20.1054 23.8398 18.479 24.4651 16.9171C25.0877 15.3622 25.5 13.8356 25.5 12.5C25.5 9.39018 24.4979 6.88145 22.7837 5.14839C21.0705 3.4162 18.6863 2.5 16 2.5C13.3137 2.5 10.9296 3.4162 9.21628 5.14839C7.50214 6.88145 6.5 9.39017 6.5 12.5C6.5 13.8356 6.91231 15.3622 7.53487 16.9171C8.16022 18.479 9.01251 20.1054 9.92519 21.6508C11.7506 24.7417 13.8397 27.5455 14.9037 28.9193C15.4641 29.6428 16.5359 29.6428 17.0963 28.9193Z" stroke="currentColor"/><circle cx="16" cy="12" r="4.5" stroke="currentColor"/></svg>

<svg xmlns="http://www.w3.org/2000/svg" fill="none" viewBox="0 0 32 32" width="1em" height="1em"><path stroke="currentColor" d="M17.096 28.92c1.064-1.375 3.153-4.178 4.979-7.27.913-1.545 1.765-3.171 2.39-4.733.623-1.555 1.035-3.081 1.035-4.417 0-3.11-1.002-5.619-2.716-7.352C21.07 3.416 18.686 2.5 16 2.5s-5.07.916-6.784 2.648C7.502 6.881 6.5 9.39 6.5 12.5c0 1.336.412 2.862 1.035 4.417.625 1.562 1.478 3.188 2.39 4.734 1.826 3.09 3.915 5.895 4.979 7.268.56.724 1.632.724 2.192 0Z"/><circle cx="16" cy="12" r="4.5" stroke="currentColor"/></svg>
